X: 36015
T: Sawdl Y Fuwch
R: jig
M: 6/8
K: Dmajor
|:A|d2 d A2 G|F A2- A2 A|d2 d F2 G|A3- A2 A|
dcd BB/c/d|e2 c A2 d|BB/c/d ecA|d3 d2:|
|:c/d/|e2 e c2 d|efe e>de|f2 f d2 e|f3 f2 e|
dcB AFA|BB/A/G FGA|Bcd e2 c|d3 -d2:|
|:c|d2 c Bde|fe/d/c B2 A|d2 f edc|B3 AA/B/c|
dcB A2 A|B>AG F2 A|Bcd e2 c|df/e/d d2:|

